dist/images/gitlab.svg

<?xml version="1.0" encoding="UTF-8" standalone="no"?>
<svg width="494px" height="455px" viewBox="0 0 494 455" version="1.1" xmlns="http://www.w3.org/2000/svg" xmlns:xlink="http://www.w3.org/1999/xlink" xmlns:sketch="http://www.bohemiancoding.com/sketch/ns">
    <!-- Generator: Sketch 3.2.2 (9983) - http://www.bohemiancoding.com/sketch -->
    <title>logo</title>
    <desc>Created with Sketch.</desc>
    <defs>
        <path id="path-1" d="M0,1173.3333 L1999.99995,1173.3333 L1999.99995,0 L0,0 L0,1173.3333 L0,1173.3333 Z"></path>
    </defs>
    <g id="Page-1" stroke="none" stroke-width="1" fill="none" fill-rule="evenodd" sketch:type="MSPage">
        <g id="gitlab_logo" sketch:type="MSLayerGroup" transform="translate(-359.000000, -360.000000)">
            <g id="g10" transform="translate(999.999975, 587.666648) scale(1, -1) translate(-999.999975, -587.666648) translate(0.000000, 0.999996)">
                <g id="g16">
                    <g id="g18-Clipped">
                        <mask id="mask-2" sketch:name="path22" fill="white">
                            <use xlink:href="#path-1"></use>
                        </mask>
                        <g id="path22"></g>
                        <g id="g18" mask="url(#mask-2)">
                            <g transform="translate(358.666658, 358.666658)">
                                <g id="g44" transform="translate(0.532000, 0.774933)">
                                    <path d="M491.999988,194.666662 L464.441322,279.481326 L409.82399,447.578655 C407.014656,456.226655 394.778657,456.226655 391.96799,447.578655 L337.349325,279.481326 L155.982663,279.481326 L101.362664,447.578655 C98.5533309,456.226655 86.3173312,456.226655 83.5066646,447.578655 L28.8893326,279.481326 L1.33199997,194.666662 C-1.18266664,186.930662 1.57199996,178.455996 8.1519998,173.674662 L246.665327,0.385333324 L485.179988,173.674662 C491.759988,178.455996 494.513321,186.930662 491.999988,194.666662" id="path46" fill="#FC6D26" sketch:type="MSShapeGroup"></path>
                                </g>
                                <g id="g48" transform="translate(155.197863, 1.160267)">
                                    <path d="M91.9999977,0 L91.9999977,0 L182.683995,279.095993 L1.31599997,279.095993 L91.9999977,0 L91.9999977,0 Z" id="path50" fill="#E24329" sketch:type="MSShapeGroup"></path>
                                </g>
                                <g id="g52" transform="translate(247.197860, 1.160267)">
                                    <g id="path54"></g>
                                </g>
                                <g id="g56" transform="translate(28.531199, 1.160800)">
                                    <path d="M218.666661,0 L127.982663,279.09466 L0.890666644,279.09466 L218.666661,0 L218.666661,0 Z" id="path58" fill="#FC6D26" sketch:type="MSShapeGroup"></path>
                                </g>
                                <g id="g60" transform="translate(247.197860, 1.160800)">
                                    <g id="path62"></g>
                                </g>
                                <g id="g64" transform="translate(0.088533, 0.255867)">
                                    <path d="M29.3333326,279.999993 L29.3333326,279.999993 L1.77466662,195.185328 C-0.738666648,187.449329 2.01466662,178.974662 8.59599979,174.194662 L247.109327,0.905333311 L29.3333326,279.999993 L29.3333326,279.999993 Z" id="path66" fill="#FCA326" sketch:type="MSShapeGroup"></path>
                                </g>
                                <g id="g68" transform="translate(247.197860, 1.160267)">
                                    <g id="path70"></g>
                                </g>
                                <g id="g72" transform="translate(29.421866, 280.255593)">
                                    <path d="M0,0 L127.091997,0 L72.4733315,168.097329 C69.6626649,176.746662 57.4266652,176.746662 54.617332,168.097329 L0,0 L0,0 Z" id="path74" fill="#E24329" sketch:type="MSShapeGroup"></path>
                                </g>
                                <g id="g76" transform="translate(247.197860, 1.160800)">
                                    <path d="M0,0 L90.6839977,279.09466 L217.775995,279.09466 L0,0 L0,0 Z" id="path78" fill="#FC6D26" sketch:type="MSShapeGroup"></path>
                                </g>
                                <g id="g80" transform="translate(246.307061, 0.255867)">
                                    <path d="M218.666661,279.999993 L218.666661,279.999993 L246.225327,195.185328 C248.73866,187.449329 245.985327,178.974662 239.403994,174.194662 L0.890666644,0.905333311 L218.666661,279.999993 L218.666661,279.999993 Z" id="path82" fill="#FCA326" sketch:type="MSShapeGroup"></path>
                                </g>
                                <g id="g84" transform="translate(336.973725, 280.255593)">
                                    <path d="M127.999997,0 L0.907999977,0 L55.5266653,168.097329 C58.3373319,176.746662 70.5733316,176.746662 73.3826648,168.097329 L127.999997,0 L127.999997,0 Z" id="path86" fill="#E24329" sketch:type="MSShapeGroup"></path>
                                </g>
                            </g>
                        </g>
                    </g>
                </g>
            </g>
        </g>
    </g>
</svg>

<?xml version="1.0" encoding="UTF-8"?>
<svg width="494px" height="455px" version="1.1" viewBox="0 0 494 455" xmlns="http://www.w3.org/2000/svg" xmlns:xlink="http://www.w3.org/1999/xlink">
 <!-- Generator: Sketch 3.2.2 (9983) - http://www.bohemiancoding.com/sketch -->
 <title>logo</title>
 <desc>Created with Sketch.</desc>
 <defs>
  <path id="path-1" d="m0 1173.3h2e3v-1173.3h-2e3v1173.3z"/>
 </defs>
 <g id="Page-1" fill="none" fill-rule="evenodd">
  <g id="gitlab_logo" transform="translate(-359 -360)">
   <g id="g10" transform="translate(1e3 587.67) scale(1 -1) translate(-1e3 -586.67)">
    <g id="g16">
     <g id="g18-Clipped">
      <mask id="mask-2" fill="white">
       <use xlink:href="#path-1"/>
      </mask>
      <g id="g18" mask="url(#mask-2)">
       <g transform="translate(358.67 358.67)">
        <g id="g44" transform="translate(.532 .77493)">
         <path id="path46" d="m492 194.67-27.559 84.815-54.617 168.1c-2.8093 8.648-15.045 8.648-17.856 0l-54.619-168.1h-181.37l-54.62 168.1c-2.8093 8.648-15.045 8.648-17.856 0l-54.617-168.1-27.557-84.815c-2.5147-7.736 0.24-16.211 6.82-20.992l238.51-173.29 238.51 173.29c6.58 4.7813 9.3333 13.256 6.82 20.992" fill="#FC6D26"/>
        </g>
        <g id="g48" transform="translate(155.2 1.1603)">
         <path id="path50" d="m92 0 90.684 279.1h-181.37l90.684-279.1z" fill="#E24329"/>
        </g>
        <g id="g52" transform="translate(247.2 1.1603)"></g>
        <g id="g56" transform="translate(28.531 1.1608)">
         <path id="path58" d="m218.67 0-90.684 279.09h-127.09l217.78-279.09z" fill="#FC6D26"/>
        </g>
        <g id="g60" transform="translate(247.2 1.1608)"></g>
        <g id="g64" transform="translate(.088533 .25587)">
         <path id="path66" d="m29.333 280-27.559-84.815c-2.5133-7.736 0.24-16.211 6.8213-20.991l238.51-173.29-217.78 279.09z" fill="#FCA326"/>
        </g>
        <g id="g68" transform="translate(247.2 1.1603)"></g>
        <g id="g72" transform="translate(29.422 280.26)">
         <path id="path74" d="m0 0h127.09l-54.619 168.1c-2.8107 8.6493-15.047 8.6493-17.856 0l-54.617-168.1z" fill="#E24329"/>
        </g>
        <g id="g76" transform="translate(247.2 1.1608)">
         <path id="path78" d="m0 0 90.684 279.09h127.09l-217.78-279.09z" fill="#FC6D26"/>
        </g>
        <g id="g80" transform="translate(246.31 .25587)">
         <path id="path82" d="m218.67 280 27.559-84.815c2.5133-7.736-0.24-16.211-6.8213-20.991l-238.51-173.29 217.78 279.09z" fill="#FCA326"/>
        </g>
        <g id="g84" transform="translate(336.97 280.26)">
         <path id="path86" d="m128 0h-127.09l54.619 168.1c2.8107 8.6493 15.047 8.6493 17.856 0l54.617-168.1z" fill="#E24329"/>
        </g>
       </g>
      </g>
     </g>
    </g>
   </g>
  </g>
 </g>
</svg>
